X: 363
T: Diddelot Reel
%R: strathspey
Z: 2014 John Chambers <jc:trillian.mit.edu>
B: Preston "Twenty four Country Dances for the Year 1799" p.162 #1
F: http://www.vwml.org/browse/browse-collections-dance-tune-books/browse-prestons1799# 2014-8-10
N: The dance starts with the unusual abbreviation "1.t" for "first".
M: C|
L: 1/8
K: D
E |\
F<AA>B d>ef>e | d<fd>B A<FE>G |\
F<AA>B d>ef>e | fae>a d3 :|
|: e |\
(f<a)a>f (g<b)b2 | (c<e)e2 (c<e)e2 |\
(f<a)a>f g<bb2 | (A<c)c>e d3 :|
% - - - - - - - - - - - - - - - - - - - - - - - - -
% - - - - - - - - - - - - - - - - - - - - - - - - -

